X: 1
T: Larry McDonagh's
M: 6/8
L: 1/8
R: jig
K: Gmaj
|:D2E G2A|B2B BAG|A2B A2G|E3 AGE|
D2E G2A|B3 Bcd|edB dBA|1 G3 G2E:|2 G3 G2B||
|:ded BAG|ded BAG|ded BAG|E3 E2B|
ded BAG|ded Bcd|edB dBA|1 G3 G2B:|2 G3 G2E||
